src/lib/packages/icons/src/assets/filled/cake.svg

<svg xmlns="http://www.w3.org/2000/svg" width="24" height="24" fill="none"><path fill="currentColor" d="M20 12.5v4.75H4V12.5c.57 0 1.53 1.22 2 2.1.14.26.42.42.72.4.29-.02.55-.22.65-.5 0-.02.75-2 1.97-2s1.95 1.98 1.95 2a.755.755 0 0 0 1.42 0c.18-.52.93-2 1.95-2 1.22 0 1.96 1.98 1.97 2 .1.28.36.48.65.5.32.02.58-.14.72-.4.47-.88 1.43-2.1 2-2.1ZM17 7h-.25V5c0-.41-.34-.75-.75-.75s-.75.34-.75.75v2h-2.5V5c0-.41-.34-.75-.75-.75s-.75.34-.75.75v2h-2.5V5c0-.41-.34-.75-.75-.75s-.75.34-.75.75v2H7c-2 0-3 1-3 3v1c1.05 0 1.98.93 2.59 1.75.55-.82 1.45-1.75 2.75-1.75s2.11.85 2.66 1.64c.55-.79 1.42-1.64 2.66-1.64 1.24 0 2.2.93 2.75 1.75.61-.82 1.54-1.75 2.59-1.75v-1c0-2-1-3-3-3ZM3 18.75v.75c0 .83.67 1.5 1.5 1.5h15c.83 0 1.5-.67 1.5-1.5v-.75H3Z"/></svg>

<svg width="24" height="24" viewBox="0 0 24 24" fill="none" xmlns="http://www.w3.org/2000/svg">
<path d="M20 12.5V17.25H4V12.5C4.57 12.5 5.53 13.72 6 14.6C6.14 14.86 6.42 15.02 6.72 15C7.01 14.98 7.27 14.78 7.37 14.5C7.37 14.48 8.12 12.5 9.34 12.5C10.56 12.5 11.29 14.48 11.29 14.5C11.4 14.8 11.68 15 12 15C12.32 15 12.6 14.8 12.71 14.5C12.89 13.98 13.64 12.5 14.66 12.5C15.88 12.5 16.62 14.48 16.63 14.5C16.73 14.78 16.99 14.98 17.28 15C17.6 15.02 17.86 14.86 18 14.6C18.47 13.72 19.43 12.5 20 12.5ZM17 7H16.75V5C16.75 4.59 16.41 4.25 16 4.25C15.59 4.25 15.25 4.59 15.25 5V7H12.75V5C12.75 4.59 12.41 4.25 12 4.25C11.59 4.25 11.25 4.59 11.25 5V7H8.75V5C8.75 4.59 8.41 4.25 8 4.25C7.59 4.25 7.25 4.59 7.25 5V7H7C5 7 4 8 4 10V11C5.05 11 5.98 11.93 6.59 12.75C7.14 11.93 8.04 11 9.34 11C10.64 11 11.45 11.85 12 12.64C12.55 11.85 13.42 11 14.66 11C15.9 11 16.86 11.93 17.41 12.75C18.02 11.93 18.95 11 20 11V10C20 8 19 7 17 7ZM3 18.75V19.5C3 20.33 3.67 21 4.5 21H19.5C20.33 21 21 20.33 21 19.5V18.75H3Z" fill="currentColor"/>
</svg>
